X:1
T:reel des \'Eboulements   #3
O:Quebec
S:Dominique Renaudin <domren:free.fr> QueTrad 2003-2-12
F:http://www.colinhume.com/ABC.txt
R:reel
M:4/4
L:1/8
K:A
((3efg |\
"A"a)A~A2 cAeA | "Bm"Bcde "E7"f2fg |\
"A"aA~A2 cAeA | "D"fd "E7"ge "A"~a3g |
"A"aA~A2 cAeA | "Bm"Bcde "E7"f2fg |\
"D"agfe "Bm"fedc | "D"df"E7"ec"A"A2 :|
|: ed |\
"A"cAEA cAeA | "Bm"Bcde "E7"f2ed |\
"A"cAEA cAeA | "Bm"fd "E7"ge "A"a2ed |
"A"cAEA cAeA | "Bm"Bcde "E7"f2fg |\
"D"agfe "Bm"fedc | "D"df"E7"ec"A"A2 :|
|: AF |\
"A"EAAB cABA | "E7"GABc dBEB |\
"E7"GB[BE]B GB[BE]B | "E7"GB[BE]B "A"A2cA |
"A"eAAB c2BA | "E7"GABc defg | "D"agfe "Bm"fedc \
|1 "D"df"E7"ec "A"A2 :|2 "E7"defg "A"a2 |]
